X: 1
T:Loch Ness Monster
M:6/8
L:1/8
Q:160
C:Peter MacLeod
S:Urbn Ri
K:D
dAA dAA|BAF AAA|dAA dAA|BAA fee|dAA dAA|\
BAF AAA|Add cde|1fdc d3:|2fdc d2e|:fAA Bff|\
BAA faa|Add cdd|fee ede|fAA Bff|BAA faa|Add cde|\
1edd d2e:|2edd d2B|:AdB Add|ddB BAA|Add Bdd|\
BAA fee|AdB Add|ddB BAA|Add cde|1edd d2B:|\
2edd d2f|:aAA faa|dAA Bff|Add cdd|fee efg|\
aAA faa|dAA Bff|Add cde|1edd d2f:|2edd f2e||
